X: 312
T: Shuigua xibaoto
L: 1/16
M: 2/4
K: Bb
c2 c d f g f d [I:setbarnb 1]| 
c8 | 
d e d cB4 | 
c2 c d c B G B | 
F8 | 
f2 f2 d f d c | 
d f f GB4 | 
c2 c d c B G B | 
F2 F B D F D F | 
G B G FG4 | 
c2> d2 f3 c | 
B2 G2 G B G F | 
D2 F2 B2 B G | 
F G F DC4 |]

@@@ Tune index: 9186
